X: 1767
T: Sevgi Deli Gönülden Gönüle...
C: Alâeddin Yavaşca
O: Turkey
F: http://compmusic.upf.edu/node/140
N: muhayyerkurdi--sarki--aksak--sevgi_deli--alaeddin_yavasca
N: makam= muhayyerkurdi
N: form= sarki
N: usul= aksak = 9/8
M: 9/8
L: 1/16
K: C _B   
Q: 1/4=252
%%MIDI tuningsystem comma53
.a2{b}ag .a2{b}ag .a2{b}af e2f2 d2 | \
w:  ARANAĞME  | 
b2 {c'}bab2 {c'}bab2 {c'}bag2 a2f2  | 
w:   | 
c'2{d'}c'b a2d'2 c'2b2 a2b2 g2 | a3gf2 e2f2 g2a4z2  | \
w:   |   | 
gab4g2 b2g2 b2g2 f2 | 
w:   | 
fg a4 f2a2 f2a2 f2e2  | fedc d2b2 a2g2 f2e2 d2 | \
w:   |   | 
c8cB cdB4A2  | 
w:   | 
A3f e2d2 c3_7/8e d2c2 B2 | c4B2 A2G4A4z2  | \
w:   |   | 
.a2{b}ag .a2{b}ag .a2{b}af e2f2 d2 | 
w:  ARANAĞME  | 
b2 {c'}bab2 {c'}bab2 {c'}bag2 a2f2  | \
w:   | 
c'2{d'}c'b a2d'2 c'2b2 a2b2 g2 | 
w:   | 
a3gf2 e2f2 g2a4z2  | gab4g2 b2g2 b2g2 f2 | \
w:   |   | 
fg a4 f2a2 f2a2 f2e2  | 
w:   | 
fedc d2b2 a2g2 f2e2 d2 | c8cB cdB4A2  | \
w:   |   | 
A3f e2d2 c3_7/8e d2c2 B2 | 
w:   | 
c4B2 A2f2 g2a4z2  | g4 a4 g2a2 b2a2 g2 | \
w:   |  Sev gi  de li  gö nül  | 
a12.f2 .e2.d2  | b12 {c'}b2{c'}a2 g2 | 
w:  den  gö nü le   |  bir   | 
c'8c'2 a2a2 b2g2  | a12 abc'b ab | g12ga baga  | \
w:  bir  *  *  a kış  |  tır  SAZ  |   | 
f12 e2f2 g2 | 
w:   | 
a4a2 b2g2 b2a4z2  | g4 a4 g2a2 b2a2 g2 | \
w:   |  Sev gi  de li  gö nül  | 
a12.f2 .e2.d2  | b12 {c'}b2{c'}a2 g2 | 
w:  den  gö nü le   |  bir   | 
c'8c'2 a2a2 b2g2  | a12 abc'b ab | g12ga baga  | \
w:  bir  *  *  a kış  |  tır  SAZ  |   | 
f12 e2f2 g2 | 
w:   | 
a4a2 b2g2 b2a4z2  | g2a2 b4 a2g2 ^f4 a2 | \
w:   |  İ zi  hiç  si lin *  me  | 
g12^f2 g2^3/4g2  | .a4 z8 f2e2 d2 | 
w:  yen  SAZ  |  ilk  ya kı cı   | 
e2 f2a4g2 e2fg f2g2  | e12 efef gf | \
w:  ya kı cı  ba kış  |  tır   SAZ  | 
e12de defd  | 
w:   | 
d12 cdcd ee | c12B2 A2G2  | A2B2 d4 c2A2 B4 c2 | \
w:   |   |  İ zi  hiç  si lin *  me  | 
A12A2 B2c2  | 
w:  yen   | 
._e4 z8 d2c2 B2 | A2 B2d4c2 A2Bc B2c2  | \
w:  ilk  ya kı cı   |  ya kı cı  ba kış  | 
A12 a2g2 a2 | b12g2 ^3/4f2g2  | 
w:  tır   SAZ  |   | 
e12 f2e2 f2 | d12c2 d2e2  | d2e2 e4 e2^3/4f2 g4 ^2/4fe | \
w:   |   |  Gün_ o lur  ye şil  *  ba  | 
e12f3ed2  | g2a2 b8 b2a2 g2 | 
w:  har   |  gün_ o lur   | 
a2 c'8-c'2b3ag2  | g12 abc'b ab | g12ga baga  | \
w:  ka ra  kış  |  tır    |  SAZ  | 
f12 e2f2 g2 | 
w:   | 
a4a2 b2g2 b2a4z2  | g2a2 b4 a2g2 ^f4 a2 | \
w:   |  İ zi  hiç  si lin *  me  | 
g12^f2 g2^3/4g2  | .a4 z8 f2e2 d2 | 
w:  yen  SAZ  |  ilk  ya kı cı   | 
e2 f2a4g2 e2fg f2g2  | e12 efef gf | \
w:  ya kı cı  ba kış  |  tır   SAZ  | 
e12de defd  | 
w:   | 
d12 cdcd ee | c12B2 A2G2  | A2B2 d4 c2A2 B4 c2 | \
w:   |   |  İ zi  hiç  si lin *  me  | 
A12A2 B2c2  | 
w:  yen   | 
._e4 z8 d2c2 B2 | A2 B2d4c2 A2Bc B2c2  | \
w:  ilk  ya kı cı   |  ya kı cı  ba kış  | 
A12 |
w:  tır    | 


